!!!OTL: Surrexit dominus valete
**kern
*staff1
=1-
*clefF4
*k[b-]
*met(c|)
*M2/2
1G
1G
=2
1F
2G\
2E-\
=3
1D
2r
2D\
=4
1G
1G
=5
1F
1F
!!linebreak:original
=6
1r
1D
=7
1A
2G\
2G\
=8
1F
2r
2F\
=9
1BB-
2F\
2G\
=10
1D
1GG
!!linebreak:original
=11
1r
1D
=12
1D
1G
=13
2F\
2E-\
1D
=14
2r
2G\
1G
=15
1C
1F
=16
1F
1r
=17
!!linebreak:original
1F
1D
=18
2F\
2F\
1C
=19
1C
1GG
=20
1GG
2G\
2F\
=21
1E-
1D
=22
1D
1r
=23
!!linebreak:original
1D
1D
=24
1A
2D\
2D\
=25
1G
2r
2C/
=26
1C
1F
=27
1BB-
2F\
2G\
=28
1D
1GG;
!!pagebreak:original
=29
*M3/1
0D
1D
=30
0G
1G
=31
1F
1F
1F
=32
0D
1D
=33
1BB-
1BB-
1BB-
=34
0BB-
1F
=35
1G
0D
=36
0GG
==
*-
!!title: @{OTL}, @{GTL}, ed. @{ENC}
!!!pag:
!!!GTL: Hymnbook D
!!!EFL: 
!!!YEM: Creative Commons CC/BY/NC/SA 4.0
!!!ENC: Marcin Konik
!!!END: 2015-0m-dd
!!!EED: Marcin Konik
!!!EEV: 
!!!ONB: Encoded in vim by Marcin Konik
!!!CharacterEncoding: utf-8
!!!RDF**kern: l=long note in original notation
!!!RDF**kern: i=editorial accidental
!!muse2ps: z14jc180F
!!!COM: Anonim
!!!CDT: [?]
!!!TXO: Polish
!!!ODT: 
!!!GTL: Hymnbook D
!!!ARL: Opactwo św. Wojciecha, Staniątki 
!!!voices:	1
